X:1
T:Title
%%score { 1 | 2 }
L:1/8
M:4/4
K:C
V:1 treble nm="Grand Piano"
V:2 bass 
V:1
 z4 z2[Q:1/4=100] [EG][EG] | [Ec]3 [Ec] [Ec]2 [EG]2 | [GB]2 A4 AA | G3 G F2 E2 |[M:3/4] D6 | %5
[M:1/4] GG |[M:4/4] [Ge]3 [Ge] [Fd]2 [Gc]2 | [Ad]2 A4 cc | B3 B [FA]2 [FB]2 |[M:3/4] [Ec]6 | %10
[M:1/4] [Ec][Ec] |[M:4/4] [GB]3 [FA] [EG]2 [DF]2 | [DF] [CE]3- [CE]2 [Ec][GB] | %13
 [FA]3 [FB] [Fd]2 [^Fc]2 |[M:3/4] B6 |[M:1/4] GG |[M:4/4] [Ge]3 [Ge] [Fd]2 [Gc]2 | [Ad]2 A4 cc | %18
 B3 B [FA]2 [FB]2 |[M:3/4] [Ec]6 |] %20
V:2
 z4 z2 [C,C][C,C] | [C,G,]3 [C,G,] [C,G,]2 [C,C]2 | [F,C]2 [F,CF]4 [F,CF][F,CF] | %3
 [G,CE]3 [G,CE] [G,B,D]2 [G,C]2 |[M:3/4] [G,B,]6 |[M:1/4] [G,B,][G,B,] | %6
[M:4/4] [C,C]3 [C,C] [D,B,]2 [E,C]2 | [F,C]2[K:treble] [F,CF]4 [A,CF][A,CF] | %8
 [G,DF]3 [G,F][K:bass] [G,,G,]2 [G,,G,]2 |[M:3/4] [C,G,]6 |[M:1/4] [C,C][C,C] | %11
[M:4/4] [E,C]3 [F,C] [G,C]2 [G,,G,]2 | [C,G,] [C,G,]3- [C,G,]2 [C,G,][E,C] | %13
 [F,C]3 [E,^G,] [D,A,]2 [D,D]2 |[M:3/4][K:treble] [G,DG]6 |[M:1/4] [G,B,][K:bass][G,B,] | %16
[M:4/4] [C,C]3 [C,C] [D,B,]2 [E,C]2 | [F,C]2[K:treble] [F,CF]4 [A,CF][A,CF] | %18
 [G,DF]3 [G,F][K:bass] [G,,G,]2 [G,,G,]2 |[M:3/4] [C,G,]6 |] %20

